@themes/theme-zeno/src/img/custom-heart.svg

<svg width="50" height="40" viewBox="0 0 50 40" fill="none" xmlns="http://www.w3.org/2000/svg">
<path fill-rule="evenodd" clip-rule="evenodd" d="M22.5904 39.1549C22.9938 39.1549 23.3972 39.0037 23.6997 38.7011L39.4071 23.5736C39.4115 23.5692 39.4179 23.563 39.4262 23.555C39.4344 23.5471 39.4445 23.5375 39.4563 23.5261C40.0526 22.9553 45.1807 18.0462 45.1807 12.228C45.1807 4.84077 40.6677 0.428589 33.1292 0.428589C28.717 0.428589 24.5821 3.90791 22.5904 5.87448C20.5986 3.90791 16.4637 0.428589 12.0516 0.428589C4.51303 0.428589 0 4.84077 0 12.228C0 18.279 5.54674 23.3467 5.74844 23.5232L21.481 38.7011C21.7836 39.0037 22.187 39.1549 22.5904 39.1549ZM9.38589 10.6751C10.8562 9.20471 13.2401 9.20471 14.7105 10.6751L22.2139 18.1784L29.7172 10.6751C31.1876 9.20471 33.5715 9.20471 35.0418 10.6751C36.5122 12.1454 36.5122 14.5293 35.0418 15.9997L22.2406 28.8009L22.2139 28.7741L22.1871 28.8009L9.38589 15.9997C7.91554 14.5293 7.91554 12.1454 9.38589 10.6751Z" fill="#6515DD"/>
<path d="M23.6997 38.7011C23.3971 39.0036 22.9937 39.1549 22.5903 39.1549C22.187 39.1549 21.7835 39.0036 21.481 38.7011L11.2952 29.1505L16.8675 23.4276L22.1386 28.6987L44.1864 6.83521C45.1807 8.06624 48.494 11.0783 50 12.5843C45.4819 17.1023 39.634 23.3467 39.4071 23.5736L23.6997 38.7011Z" fill="#1BFEC0"/>
</svg>

<svg width="50" height="40" fill="none" xmlns="http://www.w3.org/2000/svg"><path fill-rule="evenodd" clip-rule="evenodd" d="M22.59 39.155c.404 0 .807-.151 1.11-.454l15.707-15.127c.005-.005.01-.011.02-.019l.03-.029c.596-.57 5.724-5.48 5.724-11.298 0-7.387-4.513-11.8-12.052-11.8-4.412 0-8.547 3.48-10.539 5.446C20.6 3.908 16.464.43 12.052.43 4.513.429 0 4.84 0 12.228c0 6.051 5.547 11.119 5.748 11.295l15.733 15.178c.303.303.706.454 1.11.454zM9.386 10.675a3.765 3.765 0 015.325 0l7.503 7.503 7.503-7.503A3.765 3.765 0 1135.042 16L22.24 28.8l-.027-.026-.027.027L9.386 16a3.765 3.765 0 010-5.325z" fill="#6515DD"/><path d="M23.7 38.701a1.565 1.565 0 01-1.11.454c-.403 0-.806-.151-1.109-.454l-10.186-9.55 5.572-5.723 5.272 5.27L44.186 6.836c.995 1.231 4.308 4.243 5.814 5.75-4.518 4.517-10.366 10.762-10.593 10.989L23.7 38.7z" fill="#1BFEC0"/></svg>
